X:0886
M:3/4
L:1/8
Q:1/4=120
K:G
c2|(B/c/d) B2  A2    |(G/A/B) G2 g2|fe`dc``BA    |G4
ed| g2     Bc  dB    | G3      A Bc|BA G2       |]

